icon-svg/reolink-argus.svg

<svg xmlns="http://www.w3.org/2000/svg" fill="#44739e" viewBox="0 0 24 24"><path d="M9.561 10.021a5.265 5.265 0 0 0-4.032-3.169 3.128 3.128 0 0 0-2.286.862A3.055 3.055 0 0 0 2.5 9.869l1.2 6.258a5.49 5.49 0 0 0 3.971 3.341c1.645.321 3.129-.883 3.129-3.209 0 0-.954-5.573-1.239-6.238M4.065 8.3a2.58 2.58 0 0 1 1.123-.482h.052c.669-.058 1.714.182 1.825.7A.512.512 0 0 1 6.913 9c-.281.226-.646-.2-1.324-.181-.774.018-1.124.588-1.524.361a.542.542 0 0 1-.275-.443.576.576 0 0 1 .275-.437m3.217 9.421a1.292 1.292 0 0 1-1.033-1.041c-.117-.565.18-1 .665-.963a1.3 1.3 0 0 1 1.034 1.1c.087.534-.211.933-.666.9zm.537-3.621a1.64 1.64 0 0 1-1.233.53c-.046 0-.093 0-.14-.005a3.147 3.147 0 0 1-2.58-2.514 2.207 2.207 0 0 1 .4-1.944 1.653 1.653 0 0 1 1.417-.543 3.182 3.182 0 0 1 2.584 2.651 2.16 2.16 0 0 1-.448 1.825m-2.188-3.8h-.109a.952.952 0 0 0-.741.319 1.546 1.546 0 0 0-.25 1.353A2.476 2.476 0 0 0 6.5 13.944a.975.975 0 0 0 .822-.305 1.491 1.491 0 0 0 .278-1.256A2.5 2.5 0 0 0 5.631 10.3m.613 2.824a1.294 1.294 0 0 1-1.033-1.041c-.118-.566.179-1 .664-.963a1.3 1.3 0 0 1 1.035 1.1c.09.538-.21.937-.666.904M17.2 7.083a4.967 4.967 0 0 1 4.3 5.365A3.936 3.936 0 0 1 15.879 16s.847-.879.767-1.565c-.012-.109 1.929-.757 1.359-2.706-.482-1.646-1.044-1.786-1.5-2.056-.2-.12-.475-.011-.661-.132l-.562-2.025c.401-.495 1.644-.464 1.918-.433M8.442 4.95 4.927 6.571h.008c4.285-1.023 5.757 3.757 5.869 4.312l.762 3.711c.482 2.888-.321 3.45-.321 3.45l-1.2.929a51.4 51.4 0 0 0 5.155-2.714 3.958 3.958 0 0 0 .942-3.571l-1.025-4.111c-.7-2.808-2.072-4.237-4.832-4.085a5.05 5.05 0 0 0-1.843.458"/></svg>

<?xml version="1.0" encoding="UTF-8"?>
<svg width="24px" fill="#44739e" height="24px" viewBox="0 0 24 24" version="1.1" xmlns="http://www.w3.org/2000/svg" xmlns:xlink="http://www.w3.org/1999/xlink">
            <path d="M 9.561,10.021 A 5.265,5.265 0 0 0 5.529,6.852 3.128,3.128 0 0 0 3.243,7.714 3.055,3.055 0 0 0 2.5,9.869 l 1.2,6.258 a 5.49,5.49 0 0 0 3.971,3.341 c 1.645,0.321 3.129,-0.883 3.129,-3.209 0,0 -0.954,-5.573 -1.239,-6.238 z M 4.065,8.3 A 2.579,2.579 0 0 1 5.188,7.818 H 5.24 C 5.909,7.76 6.954,8 7.065,8.518 A 0.512,0.512 0 0 1 6.913,9 C 6.632,9.226 6.267,8.8 5.589,8.819 4.815,8.837 4.465,9.407 4.065,9.18 A 0.542,0.542 0 0 1 3.79,8.737 0.576,0.576 0 0 1 4.065,8.3 Z m 3.217,9.421 A 1.292,1.292 0 0 1 6.249,16.68 c -0.117,-0.565 0.18,-1 0.665,-0.963 a 1.3,1.3 0 0 1 1.034,1.1 c 0.087,0.534 -0.211,0.933 -0.666,0.9 z M 7.819,14.1 a 1.64,1.64 0 0 1 -1.233,0.53 c -0.046,0 -0.093,0 -0.14,-0.005 A 3.147,3.147 0 0 1 3.866,12.111 2.207,2.207 0 0 1 4.266,10.167 1.653,1.653 0 0 1 5.683,9.624 3.182,3.182 0 0 1 8.267,12.275 2.16,2.16 0 0 1 7.819,14.1 Z M 5.631,10.3 c -0.037,0 -0.073,0 -0.109,0 A 0.952,0.952 0 0 0 4.781,10.619 1.546,1.546 0 0 0 4.531,11.972 2.476,2.476 0 0 0 6.5,13.944 0.975,0.975 0 0 0 7.322,13.639 1.491,1.491 0 0 0 7.6,12.383 2.5,2.5 0 0 0 5.631,10.3 Z m 0.613,2.824 A 1.294,1.294 0 0 1 5.211,12.083 c -0.118,-0.566 0.179,-1 0.664,-0.963 a 1.3,1.3 0 0 1 1.035,1.1 C 7,12.758 6.7,13.157 6.244,13.124 Z M 17.2,7.083 A 4.967,4.967 0 0 1 21.5,12.448 3.936,3.936 0 0 1 15.879,16 c 0,0 0.847,-0.879 0.767,-1.565 -0.012,-0.109 1.929,-0.757 1.359,-2.706 -0.482,-1.646 -1.044,-1.786 -1.5,-2.056 -0.2,-0.12 -0.475,-0.011 -0.661,-0.132 L 15.282,7.516 C 15.683,7.021 16.926,7.052 17.2,7.083 Z M 8.442,4.95 4.927,6.571 h 0.008 c 4.285,-1.023 5.757,3.757 5.869,4.312 l 0.762,3.711 c 0.482,2.888 -0.321,3.45 -0.321,3.45 l -1.2,0.929 A 51.386,51.386 0 0 0 15.2,16.259 3.958,3.958 0 0 0 16.142,12.688 L 15.117,8.577 C 14.417,5.769 13.045,4.34 10.285,4.492 v 0 A 5.052,5.052 0 0 0 8.442,4.95 Z"></path>

</svg>
